X: 25050
T: Maids Of Ardagh, The
R: polka
M: 2/4
K: Dmajor
|:AB/A/ FA|dA f2|e>f gc|d>e fa|
AB/A/ FA|dA f2|e>f gc|1 ed dc/B/:|2 ed dc/d/||
K: Amaj
|:ef/e/ ce|(3f/g/f/e a2|ef/e/ ce|(3f/g/f/e c/B/A|
ef/e/ ce|(3f/g/f/e a2|ef/e/ dB|1 cA Ac/d/:|2 cA A2||

